X:5
T:I Will Bow and be Simple/This Train/Whiskey Johnny
M:4/4
L:1/16
K:Cmaj
V:1
% cello
%%MIDI program 42
G,4 A,4|C8  C4 C4|A,4 G,4  G,4 A,4|C8  C4 E4|G8  E4 G4|A6 G2- G4 E4|E4 C4 C4 C4|A,6 G,2 G,4(A,2C2)|C8  G,4 A,4|C6  C2 C4 C4|A,4 G,4  G,4 A,4|C6 C2 C4 E4|G8  E4 G4|A6 G2 G4 E4|E4 C4  C4 C4|A,6 G,2 G,4(A,2C2)|C8 G,4 A,4|C8  C4 C4|A,4 G,4  G,4 A,4|C8  C4 E4|G8  E4 G4|A6 G2- G4 E4|E4 C4 C4 C4|A,6 G,2 G,4(A,2C2)|C8 z8||
w:I will bow and be sim-ple, I will bow and be free, I will bow and* be hum-ble, Yea, bow like the wil-low* tree. I will bow, this is the to-ken, I will wear the ea-sy yoke, I will bow and will be bro-ken, Yea, I'll fall u-pon the* rock. I will bow and be sim-ple, I will bow and be free, I will bow and* be hum-ble, Yea, bow like the wil-low* tree. 
V:2
% barisax
%%MIDI program 67
z8|z16|z16|z16|z16|z16|z16||C2 C4 E2 D3 C A,2G,2| C2 C2- C8 z4| G2 G4 c2 A3 G E2G2| G2 G2- G8 z4| G2 G4 c2 A3 G E2C2|D2D2 CC CC EE CC A,2G,2| C2 C4 E2 D3 C A,2G,2| C2 C2- C8 z4|C2 C4 E2 D3 C A,2G,2| C2 C2- C8 z4| G2 G4 c2 A3 G E2G2| G2 G2- G8 z4| G2 G4 c2 A3 G E2C2|D2D2 CC CC EE CC A,2G,2| C2 C4 E2 D3 C A,2G,2| C2 C2- C8 z4|z16|z16|
w:This train is bound for glo-ry, this train,* This train is bound for glo-ry, this train,* This train is bound for glo-ry, Don't ride no-thin' but the right-eous an' the ho-ly This train is bound for glo-ry, this train* This train is bound for glo-ry, this train,* This train is bound for glo-ry, this train,* This train is bound for glo-ry, Don't ride no-thin' but the right-eous an' the ho-ly This train is bound for glo-ry, this train*
V:3
% bassoon
%%MIDI program 70
z8|z16|z16|z16|z16|z16|z16|z16|z16|z16|z16|z16|z16|C4 E4 C4 G,4| C4 E4 C8| C4 E12| C4 E8 G4| F6 E2 D4 C4| B,4 D4 G,8| C4 E4 G6 G2|E4 C12|z16|z16|z16|z16|
w:Whis-key is the life of man Whis-key, John-ny! Oh, I'll drink whis-key while I can Whis-key for my John-ny!

